X: 32106
T: Perth Assembly
R: reel
M: 4/4
K: Fmajor
B|A2 cA B2 dB|c2 Ac BGGB|ABcA Bcde|fcdB AFF:|
f|a2 fa g2eg|f2 df ecce|d2 Bd c2Ac|BGcB AFFf|
agfa gfeg|fedf edce|dcBd cBAc|dfeg aff||

